!!!OTL: ES SASS EIN KNAB UND WEINTE SEHR
!!!ARE: Europa, Mitteleuropa, Deutschland
!!!SCT: F0294
!!!YEM: Copyright 1995, estate of Helmut Schaffrath.
**kern
*ICvox
*Ivox
*M6/8
*k[b-e-]
*g:
{8g
=1
4g
8b-
4b-
8dd
=2
4dd
8a
4a}
{16b-
16a
=3
4.g
4b-
8g
=4
4.dd
4r}
{8dd
=5
4ee-
8ee-
4ee-
8ee-
=6
4dd
8g
4g}
{16g
16a
=7
4.b-
4g
8dd
=8
4.g
4r}
{8dd
=9
4dd
8dd
4dd
8dd
=10
4dd
8cc
4cc}
{8cc
=11
4.b-
4.g
=12
4.a
4r}
{8d
=13
4g
8a
4b-
8b-
=14
8.cc
16b-
8cc
4dd}
{16ffn
16ee-
=15
4.dd
4.cc
=16
4.b-
4r}
{16dd
16cc
=17
4.b-
4.a
=18
4.b-
4r}
==
!!!AGN: Jugend - Lied, Toten - Klage, Belehrung, Moral
!!!ONB: ESAC (Essen Associative Code) Database: FINK
!!!AMT: compound duple
!!!AIN: vox
!!!EED: Helmut Schaffrath
!!!EEV: 1.0
*-
